svg/aws-ec2-x2gd.svg

<?xml version="1.0" encoding="UTF-8"?>
<svg xmlns="http://www.w3.org/2000/svg" xmlns:xlink="http://www.w3.org/1999/xlink" width="32" height="32" viewBox="0 0 32 32">
<path fill-rule="evenodd" fill="rgb(83.137255%, 35.686275%, 2.745098%)" fill-opacity="1" d="M 6 26 L 26 26 L 26 6 L 6 6 Z M 27.332031 8.667969 L 27.332031 11.332031 L 30.667969 11.332031 L 30.667969 12.667969 L 27.332031 12.667969 L 27.332031 15.332031 L 30.667969 15.332031 L 30.667969 16.667969 L 27.332031 16.667969 L 27.332031 19.332031 L 30.667969 19.332031 L 30.667969 20.667969 L 27.332031 20.667969 L 27.332031 23.332031 L 30.667969 23.332031 L 30.667969 24.667969 L 27.332031 24.667969 L 27.332031 26.667969 C 27.332031 27.035156 27.035156 27.332031 26.667969 27.332031 L 24.667969 27.332031 L 24.667969 30.667969 L 23.332031 30.667969 L 23.332031 27.332031 L 20.667969 27.332031 L 20.667969 30.667969 L 19.332031 30.667969 L 19.332031 27.332031 L 16.667969 27.332031 L 16.667969 30.667969 L 15.332031 30.667969 L 15.332031 27.332031 L 12.667969 27.332031 L 12.667969 30.667969 L 11.332031 30.667969 L 11.332031 27.332031 L 8.667969 27.332031 L 8.667969 30.667969 L 7.332031 30.667969 L 7.332031 27.332031 L 5.332031 27.332031 C 4.964844 27.332031 4.667969 27.035156 4.667969 26.667969 L 4.667969 24.667969 L 1.332031 24.667969 L 1.332031 23.332031 L 4.667969 23.332031 L 4.667969 20.667969 L 1.332031 20.667969 L 1.332031 19.332031 L 4.667969 19.332031 L 4.667969 16.667969 L 1.332031 16.667969 L 1.332031 15.332031 L 4.667969 15.332031 L 4.667969 12.667969 L 1.332031 12.667969 L 1.332031 11.332031 L 4.667969 11.332031 L 4.667969 8.667969 L 1.332031 8.667969 L 1.332031 7.332031 L 4.667969 7.332031 L 4.667969 5.332031 C 4.667969 4.964844 4.964844 4.667969 5.332031 4.667969 L 7.332031 4.667969 L 7.332031 1.332031 L 8.667969 1.332031 L 8.667969 4.667969 L 11.332031 4.667969 L 11.332031 1.332031 L 12.667969 1.332031 L 12.667969 4.667969 L 15.332031 4.667969 L 15.332031 1.332031 L 16.667969 1.332031 L 16.667969 4.667969 L 19.332031 4.667969 L 19.332031 1.332031 L 20.667969 1.332031 L 20.667969 4.667969 L 23.332031 4.667969 L 23.332031 1.332031 L 24.667969 1.332031 L 24.667969 4.667969 L 26.667969 4.667969 C 27.035156 4.667969 27.332031 4.964844 27.332031 5.332031 L 27.332031 7.332031 L 30.667969 7.332031 L 30.667969 8.667969 Z M 21.296875 16.59375 C 21.296875 17.453125 21.613281 17.882812 22.238281 17.882812 C 22.523438 17.882812 22.808594 17.792969 23.082031 17.605469 L 23.082031 15.589844 C 22.839844 15.414062 22.546875 15.320312 22.25 15.324219 C 21.925781 15.324219 21.683594 15.429688 21.53125 15.636719 C 21.375 15.84375 21.296875 16.164062 21.296875 16.59375 M 20.839844 18.042969 C 20.558594 17.691406 20.417969 17.222656 20.417969 16.628906 C 20.417969 16.238281 20.480469 15.894531 20.609375 15.597656 C 20.734375 15.296875 20.917969 15.066406 21.160156 14.894531 C 21.398438 14.726562 21.683594 14.644531 22.011719 14.644531 C 22.402344 14.644531 22.757812 14.769531 23.082031 15.023438 L 23.082031 13.058594 L 23.945312 13.058594 L 23.945312 18.484375 L 23.207031 18.484375 L 23.117188 18.125 C 22.800781 18.410156 22.390625 18.570312 21.964844 18.566406 C 21.496094 18.566406 21.121094 18.394531 20.839844 18.042969 M 17.15625 16.511719 C 17.15625 17.335938 17.445312 17.746094 18.027344 17.746094 C 18.316406 17.746094 18.589844 17.648438 18.847656 17.457031 L 18.847656 15.582031 C 18.609375 15.410156 18.328125 15.320312 18.035156 15.316406 C 17.738281 15.316406 17.515625 15.414062 17.371094 15.609375 C 17.226562 15.804688 17.15625 16.105469 17.15625 16.511719 M 16.683594 17.902344 C 16.410156 17.5625 16.273438 17.109375 16.273438 16.542969 C 16.273438 16.171875 16.335938 15.84375 16.457031 15.554688 C 16.570312 15.289062 16.75 15.054688 16.984375 14.882812 C 17.214844 14.726562 17.488281 14.644531 17.800781 14.644531 C 18.226562 14.644531 18.59375 14.792969 18.90625 15.089844 L 18.980469 14.753906 L 19.714844 14.753906 L 19.714844 18.230469 C 19.714844 18.820312 19.554688 19.277344 19.230469 19.601562 C 18.910156 19.925781 18.453125 20.085938 17.855469 20.085938 C 17.410156 20.085938 16.972656 19.984375 16.574219 19.785156 L 16.574219 19.167969 C 17.03125 19.320312 17.4375 19.394531 17.800781 19.394531 C 18.167969 19.398438 18.433594 19.3125 18.597656 19.140625 C 18.765625 18.976562 18.847656 18.699219 18.847656 18.316406 L 18.847656 18 C 18.53125 18.273438 18.171875 18.410156 17.769531 18.410156 C 17.316406 18.410156 16.953125 18.242188 16.683594 17.902344 M 15.6875 17.789062 L 13.128906 17.789062 C 13.714844 17.257812 14.175781 16.808594 14.507812 16.449219 C 14.84375 16.089844 15.085938 15.769531 15.234375 15.488281 C 15.386719 15.207031 15.460938 14.929688 15.460938 14.65625 C 15.484375 14.144531 15.195312 13.671875 14.730469 13.453125 C 14.480469 13.335938 14.207031 13.277344 13.929688 13.285156 C 13.363281 13.285156 12.847656 13.476562 12.382812 13.859375 L 12.382812 14.578125 C 12.636719 14.402344 12.886719 14.265625 13.132812 14.167969 C 13.378906 14.074219 13.609375 14.027344 13.820312 14.027344 C 14.058594 14.027344 14.242188 14.089844 14.375 14.214844 C 14.507812 14.339844 14.574219 14.511719 14.574219 14.738281 C 14.578125 14.929688 14.515625 15.136719 14.390625 15.363281 C 14.269531 15.585938 14.046875 15.882812 13.730469 16.25 C 13.414062 16.617188 12.917969 17.140625 12.242188 17.824219 L 12.242188 18.484375 L 15.6875 18.484375 Z M 7.476562 18.484375 L 9.175781 15.851562 L 7.59375 13.402344 L 8.488281 13.402344 L 9.695312 15.207031 L 10.878906 13.402344 L 11.773438 13.402344 L 10.179688 15.839844 L 11.890625 18.484375 L 10.996094 18.484375 L 9.660156 16.476562 L 8.371094 18.484375 Z M 7.476562 18.484375 "/>
</svg>

<svg role="img" viewBox="0 0 32 32" height="32" width="32" xmlns="http://www.w3.org/2000/svg"><path d="M6 26h20V6H6ZM27.332 8.668v2.664h3.336v1.336h-3.336v2.664h3.336v1.336h-3.336v2.664h3.336v1.336h-3.336v2.664h3.336v1.336h-3.336v2a.664.664 0 0 1-.664.664h-2v3.336h-1.336v-3.336h-2.664v3.336h-1.336v-3.336h-2.664v3.336h-1.336v-3.336h-2.664v3.336h-1.336v-3.336H8.668v3.336H7.332v-3.336h-2a.664.664 0 0 1-.664-.664v-2H1.332v-1.336h3.336v-2.664H1.332v-1.336h3.336v-2.664H1.332v-1.336h3.336v-2.664H1.332v-1.336h3.336V8.668H1.332V7.332h3.336v-2c0-.367.297-.664.664-.664h2V1.332h1.336v3.336h2.664V1.332h1.336v3.336h2.664V1.332h1.336v3.336h2.664V1.332h1.336v3.336h2.664V1.332h1.336v3.336h2c.367 0 .664.297.664.664v2h3.336v1.336Zm-6.035 7.926c0 .86.316 1.289.941 1.289.285 0 .57-.09.844-.278V15.59a1.39 1.39 0 0 0-.832-.266c-.324 0-.566.106-.719.313-.156.207-.234.527-.234.957m-.457 1.449c-.281-.352-.422-.82-.422-1.414 0-.39.062-.734.191-1.031.125-.301.309-.532.551-.703.238-.168.524-.25.852-.25.39 0 .746.125 1.07.378V13.06h.863v5.425h-.738l-.09-.359a1.7 1.7 0 0 1-1.152.441c-.469 0-.844-.171-1.125-.523m-3.684-1.531c0 .824.29 1.234.871 1.234.29 0 .563-.098.82-.289v-1.875a1.412 1.412 0 0 0-.812-.266c-.297 0-.52.098-.664.293-.144.196-.215.496-.215.903m-.472 1.39c-.274-.34-.41-.793-.41-1.359 0-.371.062-.7.183-.988.113-.266.293-.5.527-.672.23-.156.504-.238.817-.238.426 0 .793.148 1.105.445l.074-.336h.735v3.476c0 .59-.16 1.047-.485 1.372-.32.324-.777.484-1.375.484a2.86 2.86 0 0 1-1.28-.3v-.618c.456.152.863.227 1.226.227.367.003.633-.082.797-.254.168-.164.25-.442.25-.825V18c-.317.273-.676.41-1.078.41-.454 0-.817-.168-1.086-.508m-.997-.113H13.13c.586-.531 1.047-.98 1.379-1.34.336-.36.578-.68.726-.96.153-.282.227-.56.227-.833a1.266 1.266 0 0 0-.73-1.203 1.768 1.768 0 0 0-.801-.168c-.567 0-1.082.192-1.547.574v.72c.254-.177.504-.313.75-.411.246-.094.476-.14.687-.14.239 0 .422.062.555.187.133.125.2.297.2.523.003.192-.06.399-.184.625-.121.223-.344.52-.66.887-.317.367-.813.89-1.489 1.574v.66h3.445Zm-8.21.695 1.699-2.632-1.582-2.45h.894l1.207 1.805 1.184-1.805h.894L10.18 15.84l1.71 2.644h-.894L9.66 16.477l-1.289 2.007Zm0 0" fill="rgb(83.137255%, 35.686275%, 2.745098%)" fill-rule="evenodd"/></svg>
